;FLAVOR:Marlin
;TIME:8415
;Filament used: 10.6829m
;Layer height: 0.22
;MINX:-59.48
;MINY:-49.32
;MINZ:0.3
;MAXX:59.48
;MAXY:49.32
;MAXZ:4.92
;Generated with Cura_SteamEngine 5.2.2
M140 S75
M105
M190 S75
M104 S256
M105
M109 S256
M82 ;absolute extrusion mode
;FLAVOR:Marlin
M82 ;absolute extrusion mode
G21
G90
M82
M107 T0
G28
G92 E0
G0 E3 F200
G92 E0 ; reset extrusion distance
M106 S255 ; Enable cooling fan full speed
G1 X-98 Y0 Z0.4 F3000 ; move to arc start
G3 X0 Y-98 I98 Z0.4 E40 F400 ; lay arc stripe 90deg
G92 E0 ; reset extrusion distance
G4 P500 ; wait for 0.5 sec
G0 Z10 E-1 ; Lift 15mm and retract 1mm filament
G4 P2000 ; wait for 5 sec
G0 Z15
M107 ; Disable cooling fan
G1 X0 Y-85 Z4 E0 F3000 ; get off the bed
G92 E0
G92 E0
G1 F1920 E-15.5
;LAYER_COUNT:22
;LAYER:0
M107
G1 F600 Z2.3
G0 F3600 X-55.219 Y49.32 Z2.3
;TYPE:SKIRT
G1 F600 Z0.3
G1 F1920 E0
G1 F1800 X-55.917 Y49.311 E0.03483
G1 X-56.452 Y49.264 E0.06162
G1 X-56.973 Y49.138 E0.08836
G1 X-57.47 Y48.936 E0.11513
G1 X-57.931 Y48.663 E0.14186
G1 X-58.347 Y48.324 E0.16863
G1 X-58.708 Y47.928 E0.19536
G1 X-59.006 Y47.482 E0.22212
G1 X-59.234 Y46.996 E0.24891
G1 X-59.387 Y46.482 E0.27566
G1 X-59.479 Y45.735 E0.31321
G1 X-59.48 Y-45.095 E4.84474
G1 X-59.471 Y-45.76 E4.87792
G1 X-59.423 Y-46.294 E4.90467
G1 X-59.297 Y-46.815 E4.93141
G1 X-59.095 Y-47.312 E4.95818
G1 X-58.822 Y-47.773 E4.98491
G1 X-58.483 Y-48.189 E5.01168
G1 X-58.086 Y-48.549 E5.03841
G1 X-57.639 Y-48.847 E5.06522
G1 X-57.154 Y-49.075 E5.09195
G1 X-56.64 Y-49.228 E5.11871
G1 X-55.899 Y-49.319 E5.15596
G1 X55.225 Y-49.32 E10.69996
G1 X55.923 Y-49.31 E10.73478
G1 X56.457 Y-49.262 E10.76153
G1 X56.978 Y-49.136 E10.78827
G1 X57.475 Y-48.933 E10.81506
G1 X57.936 Y-48.659 E10.84181
G1 X58.351 Y-48.32 E10.86855
G1 X58.711 Y-47.922 E10.89532
G1 X59.008 Y-47.476 E10.92205
G1 X59.236 Y-46.99 E10.94884
G1 X59.388 Y-46.476 E10.97558
G1 X59.479 Y-45.738 E11.01268
G1 X59.48 Y45.029 E15.54106
G1 X59.471 Y45.756 E15.57733
G1 X59.424 Y46.29 E15.60408
G1 X59.299 Y46.811 E15.63081
G1 X59.097 Y47.308 E15.65757
G1 X58.824 Y47.77 E15.68434
G1 X58.486 Y48.186 E15.71109
G1 X58.089 Y48.547 E15.73786
G1 X57.643 Y48.845 E15.76462
G1 X57.158 Y49.073 E15.79135
G1 X56.644 Y49.227 E15.81812
G1 X55.899 Y49.319 E15.85557
G1 X-55.219 Y49.32 E21.39927
G0 F3600 X-55.214 Y48.92
G1 F1800 X-55.912 Y48.911 E21.4341
G1 X-56.416 Y48.864 E21.45935
G1 X-56.906 Y48.739 E21.48458
G1 X-57.37 Y48.538 E21.50981
G1 X-57.796 Y48.267 E21.535
G1 X-58.175 Y47.932 E21.56024
G1 X-58.496 Y47.541 E21.58548
G1 X-58.751 Y47.105 E21.61067
G1 X-58.935 Y46.634 E21.6359
G1 X-59.042 Y46.14 E21.66112
G1 X-59.079 Y45.687 E21.6838
G1 X-59.08 Y-45.089 E26.21263
G1 X-59.071 Y-45.754 E26.24581
G1 X-59.024 Y-46.258 E26.27106
G1 X-58.898 Y-46.747 E26.29626
G1 X-58.697 Y-47.211 E26.32148
G1 X-58.426 Y-47.638 E26.34671
G1 X-58.091 Y-48.016 E26.37191
G1 X-57.7 Y-48.337 E26.39715
G1 X-57.263 Y-48.592 E26.42239
G1 X-56.792 Y-48.776 E26.44762
G1 X-56.298 Y-48.882 E26.47283
G1 X-55.853 Y-48.919 E26.49511
G1 X55.219 Y-48.92 E32.03651
G1 X55.917 Y-48.91 E32.07134
G1 X56.42 Y-48.863 E32.09654
G1 X56.91 Y-48.737 E32.12178
G1 X57.374 Y-48.535 E32.14703
G1 X57.8 Y-48.263 E32.17225
G1 X58.178 Y-47.928 E32.19745
G1 X58.498 Y-47.537 E32.22265
G1 X58.753 Y-47.1 E32.2479
G1 X58.936 Y-46.629 E32.2731
G1 X59.043 Y-46.135 E32.29832
G1 X59.079 Y-45.48 E32.33105
G1 X59.08 Y45.024 E36.84631
G1 X59.071 Y45.751 E36.88259
G1 X59.025 Y46.254 E36.90778
G1 X58.9 Y46.744 E36.93301
G1 X58.699 Y47.208 E36.95824
G1 X58.428 Y47.635 E36.98347
G1 X58.093 Y48.014 E37.00871
G1 X57.703 Y48.335 E37.03391
G1 X57.267 Y48.591 E37.05913
G1 X56.796 Y48.774 E37.08434
G1 X56.302 Y48.882 E37.10957
G1 X55.64 Y48.919 E37.14265
G1 X-55.214 Y48.92 E42.67318
G1 F1920 E27.17318
;MESH:compnent box front.stl
G0 F3600 X-55.214 Y46.385
G0 X-55.214 Y45.3
G1 F1920 E42.67318
G0 F3600 X-55.28 Y45.12
;TYPE:WALL-INNER
G1 F1800 X55.28 Y45.12 E48.18904
G1 X55.28 Y-16.115 E51.24407
G1 X55.28 Y-45.12 E52.69113
G1 X-55.279 Y-45.119 E58.20694
G1 X-55.28 Y45.12 E62.70898
G0 F3600 X-55.68 Y45.52
;TYPE:WALL-OUTER
G1 F1800 X55.68 Y45.52 E68.26476
G1 X55.68 Y-16.115 E71.33974
G1 X55.68 Y-45.52 E72.80676
G1 X-55.679 Y-45.519 E78.36248
G1 X-55.68 Y45.52 E82.90444
G0 F3600 X-55.48 Y45.52
G0 X-55.01 Y44.85
G0 X-40.231 Y12.978
G0 X-39.812 Y12.978
;TYPE:WALL-INNER
G1 F1800 X-39.929 Y12.676 E82.9206
G1 X-39.929 Y9.483 E83.0799
G1 X-39.774 Y9.213 E83.09543
G1 X-39.619 Y9.091 E83.10527
G1 X-39.384 Y9.019 E83.11753
G1 X-3.331 Y9.018 E84.91622
G1 X-3.059 Y9.082 E84.93016
G1 X-2.829 Y9.288 E84.94557
G1 X-2.731 Y9.549 E84.95948
G1 X-2.735 Y12.689 E85.11613
G1 X-2.777 Y12.849 E85.12439
G1 X-2.885 Y13.021 E85.13452
G1 X-3.076 Y13.162 E85.14636
G1 X-3.252 Y13.218 E85.15558
G1 X-14.138 Y13.218 E85.69868
G1 X-39.391 Y13.216 E86.95856
G1 X-39.673 Y13.112 E86.97355
G1 X-39.812 Y12.978 E86.98319
G0 F3600 X-40.231 Y12.978
G0 X-40.231 Y9.483
G0 X-39.479 Y9.483
;TYPE:WALL-OUTER
G1 F1800 X-39.349 Y9.418 E86.99044
G1 X-3.331 Y9.418 E88.78738
G1 X-3.188 Y9.477 E88.7951
G1 X-3.131 Y9.601 E88.80191
G1 X-3.132 Y12.642 E88.95363
G1 X-3.182 Y12.753 E88.9597
G1 X-3.296 Y12.816 E88.9662
G1 X-14.138 Y12.818 E89.50711
G1 X-39.351 Y12.818 E90.76499
G1 X-39.481 Y12.752 E90.77226
G1 X-39.531 Y12.638 E90.77847
G1 X-39.531 Y9.573 E90.93139
G1 X-39.479 Y9.483 E90.93657
G0 F3600 X-39.349 Y9.418
G0 X-39.294 Y9.418
G0 X-39.294 Y8.718
G0 X-40.159 Y7.446
G0 X-40.231 Y-2.666
G0 X-39.86 Y-2.666
;TYPE:WALL-INNER
G1 F1800 X-39.614 Y-2.912 E90.95393
G1 X-39.384 Y-2.98 E90.96589
G1 X-3.214 Y-2.982 E92.77042
G1 X-2.955 Y-2.85 E92.78493
G1 X-2.768 Y-2.592 E92.80082
G1 X-2.731 Y-2.412 E92.80999
G1 X-2.732 Y0.665 E92.9635
G1 X-2.793 Y0.886 E92.97494
G1 X-2.905 Y1.042 E92.98452
G1 X-3.061 Y1.155 E92.99413
G1 X-3.331 Y1.218 E93.00796
G1 X-39.384 Y1.217 E94.80666
G1 X-39.619 Y1.145 E94.81892
G1 X-39.774 Y1.023 E94.82876
G1 X-39.929 Y0.753 E94.84429
G1 X-39.929 Y-2.437 E95.00344
G1 X-39.86 Y-2.666 E95.01537
G0 F3600 X-39.508 Y-2.477
;TYPE:WALL-OUTER
G1 F1800 X-39.403 Y-2.582 E95.02278
G1 X-3.294 Y-2.582 E96.82427
G1 X-3.17 Y-2.502 E96.83163
G1 X-3.131 Y-2.402 E96.83698
G1 X-3.136 Y0.667 E96.9901
G1 X-3.189 Y0.76 E96.99544
G1 X-3.331 Y0.818 E97.00309
G1 X-39.409 Y0.818 E98.80303
G1 X-39.528 Y0.658 E98.81298
G1 X-39.531 Y-2.401 E98.96559
G1 X-39.508 Y-2.477 E98.96955
G0 F3600 X-39.403 Y-2.582
G0 X-39.351 Y-2.582
G0 X-39.351 Y-3.282
G0 X-40.231 Y-8.022
G0 X-39.812 Y-8.022
;TYPE:WALL-INNER
G1 F1800 X-39.931 Y-8.303 E98.98478
G1 X-39.93 Y-11.427 E99.14063
G1 X-39.908 Y-11.548 E99.14677
G1 X-39.749 Y-11.814 E99.16223
G1 X-39.593 Y-11.923 E99.17173
G1 X-39.384 Y-11.981 E99.18255
G1 X-3.331 Y-11.982 E100.98124
G1 X-3.05 Y-11.913 E100.99567
G1 X-2.894 Y-11.795 E101.00543
G1 X-2.788 Y-11.639 E101.01484
G1 X-2.733 Y-11.442 E101.02505
G1 X-2.732 Y-8.285 E101.18255
G1 X-2.801 Y-8.099 E101.19245
G1 X-2.955 Y-7.914 E101.20446
G1 X-3.214 Y-7.782 E101.21896
G1 X-39.384 Y-7.784 E103.02349
G1 X-39.614 Y-7.852 E103.03545
G1 X-39.812 Y-8.022 E103.04847
G0 F3600 X-39.492 Y-8.262
;TYPE:WALL-OUTER
G1 F1800 X-39.531 Y-8.344 E103.053
G1 X-39.53 Y-11.409 E103.20592
G1 X-39.524 Y-11.438 E103.20739
G1 X-39.471 Y-11.526 E103.21252
G1 X-39.349 Y-11.582 E103.21922
G1 X-3.331 Y-11.582 E105.01616
G1 X-3.185 Y-11.52 E105.02408
G1 X-3.131 Y-11.402 E105.03055
G1 X-3.138 Y-8.326 E105.18401
G1 X-3.184 Y-8.245 E105.18866
G1 X-3.294 Y-8.182 E105.19498
G1 X-39.349 Y-8.182 E106.99377
G1 X-39.492 Y-8.262 E107.00195
G0 F3600 X-39.531 Y-8.344
G0 X-39.531 Y-8.454
G0 X-40.231 Y-8.454
G0 X-40.159 Y-18.21
G0 X-39.685 Y-17.868
;TYPE:WALL-INNER
G1 F1800 X-39.384 Y-17.981 E107.01799
G1 X-3.331 Y-17.982 E108.81668
G1 X-3.051 Y-17.914 E108.83106
G1 X-2.896 Y-17.796 E108.84078
G1 X-2.751 Y-17.54 E108.85545
G1 X-2.731 Y-17.399 E108.86256
G1 X-2.739 Y-14.28 E109.01817
G1 X-2.788 Y-14.125 E109.02628
G1 X-2.894 Y-13.969 E109.03569
G1 X-3.05 Y-13.851 E109.04545
G1 X-3.331 Y-13.782 E109.05988
G1 X-39.384 Y-13.783 E110.85857
G1 X-39.593 Y-13.841 E110.86939
G1 X-39.749 Y-13.95 E110.87889
G1 X-39.902 Y-14.196 E110.89334
G1 X-39.929 Y-14.329 E110.90011
G1 X-39.931 Y-17.468 E111.05672
G1 X-39.861 Y-17.665 E111.06715
G1 X-39.685 Y-17.868 E111.08055
G0 F3600 X-39.685 Y-18.282
G0 X-40.159 Y-13.554
G0 X-39.471 Y-14.238
;TYPE:WALL-OUTER
G1 F1800 X-39.531 Y-14.335 E111.08624
G1 X-39.527 Y-17.426 E111.24045
G1 X-39.479 Y-17.518 E111.24563
G1 X-39.349 Y-17.582 E111.25286
G1 X-3.261 Y-17.582 E113.0533
G1 X-3.162 Y-17.49 E113.06004
G1 X-3.131 Y-17.388 E113.06536
G1 X-3.133 Y-14.348 E113.21702
G1 X-3.185 Y-14.244 E113.22282
G1 X-3.331 Y-14.182 E113.23074
G1 X-39.349 Y-14.182 E115.02768
G1 X-39.471 Y-14.238 E115.03438
G0 F3600 X-39.531 Y-14.335
G0 X-39.531 Y-14.421
G0 X-40.231 Y-14.421
G0 X-40.159 Y-24.21
G0 X-39.622 Y-23.908
;TYPE:WALL-INNER
G1 F1800 X-39.378 Y-23.981 E115.04709
G1 X-3.288 Y-23.981 E116.84762
G1 X-3.085 Y-23.93 E116.85807
G1 X-2.85 Y-23.743 E116.87305
G1 X-2.734 Y-23.45 E116.88877
G1 X-2.739 Y-20.279 E117.04697
G1 X-2.789 Y-20.124 E117.0551
G1 X-2.896 Y-19.968 E117.06454
G1 X-3.051 Y-19.85 E117.07426
G1 X-3.331 Y-19.782 E117.08863
G1 X-39.384 Y-19.783 E118.88732
G1 X-39.685 Y-19.896 E118.90336
G1 X-39.831 Y-20.049 E118.91391
G1 X-39.928 Y-20.314 E118.92799
G1 X-39.93 Y-23.42 E119.08295
G1 X-39.86 Y-23.667 E119.09576
G1 X-39.622 Y-23.908 E119.11266
G0 F3600 X-39.48 Y-23.517
;TYPE:WALL-OUTER
G1 F1800 X-39.347 Y-23.582 E119.12004
G1 X-3.288 Y-23.578 E120.91903
G1 X-3.17 Y-23.503 E120.92601
G1 X-3.131 Y-23.425 E120.93036
G1 X-3.137 Y-20.329 E121.08482
G1 X-3.237 Y-20.204 E121.09281
G1 X-3.331 Y-20.182 E121.09762
G1 X-39.349 Y-20.182 E122.89457
G1 X-39.449 Y-20.22 E122.89991
G1 X-39.531 Y-20.364 E122.90817
G1 X-39.531 Y-23.433 E123.06129
G1 X-39.48 Y-23.517 E123.06619
G0 F3600 X-39.347 Y-23.582
G0 X-39.295 Y-23.582
G0 X-39.295 Y-24.282
G0 X-47.862 Y-25.159
G0 X-49.003 Y-25.058
G0 X-50.087 Y-24.692
G0 X-51.057 Y-24.079
G0 X-51.854 Y-23.258
G0 X-52.437 Y-22.272
G0 X-52.771 Y-21.177
G0 X-52.835 Y-19.486
G0 X-52.539 Y-19.52
;TYPE:WALL-INNER
G1 F1800 X-52.596 Y-20.013 E123.09095
G1 X-52.599 Y-20.556 E123.11804
G1 X-52.541 Y-21.088 E123.14474
G1 X-52.394 Y-21.707 E123.17648
G1 X-52.202 Y-22.205 E123.20311
G1 X-51.949 Y-22.69 E123.2304
G1 X-51.642 Y-23.141 E123.25762
G1 X-51.332 Y-23.5 E123.28128
G1 X-50.933 Y-23.87 E123.30843
G1 X-50.491 Y-24.192 E123.33571
G1 X-50.016 Y-24.459 E123.3629
G1 X-49.449 Y-24.688 E123.3934
G1 X-48.92 Y-24.829 E123.42072
G1 X-48.449 Y-24.899 E123.44447
G1 X-47.834 Y-24.917 E123.47517
G1 X-47.292 Y-24.865 E123.50233
G1 X-46.791 Y-24.758 E123.52789
G1 X-46.244 Y-24.568 E123.55678
G1 X-45.774 Y-24.343 E123.58278
G1 X-45.326 Y-24.059 E123.60924
G1 X-44.93 Y-23.74 E123.63461
G1 X-44.522 Y-23.325 E123.66365
G1 X-44.172 Y-22.863 E123.69256
G1 X-43.897 Y-22.39 E123.71986
G1 X-43.683 Y-21.893 E123.74686
G1 X-43.525 Y-21.366 E123.77431
G1 X-43.432 Y-20.811 E123.80238
G1 X-43.406 Y-20.285 E123.82865
G1 X-43.442 Y-19.744 E123.8557
G1 X-43.527 Y-19.265 E123.87998
G1 X-43.7 Y-18.699 E123.9095
G1 X-43.899 Y-18.244 E123.93428
G1 X-44.172 Y-17.777 E123.96127
G1 X-44.499 Y-17.344 E123.98834
G1 X-44.928 Y-16.902 E124.01907
G1 X-45.353 Y-16.563 E124.04619
G1 X-45.792 Y-16.287 E124.07206
G1 X-46.277 Y-16.057 E124.09884
G1 X-46.827 Y-15.873 E124.12777
G1 X-47.292 Y-15.775 E124.15148
G1 X-47.855 Y-15.721 E124.1797
G1 X-48.449 Y-15.741 E124.20935
G1 X-48.991 Y-15.826 E124.23672
G1 X-49.449 Y-15.952 E124.26042
G1 X-49.95 Y-16.15 E124.2873
G1 X-50.489 Y-16.448 E124.31803
G1 X-50.933 Y-16.77 E124.34539
G1 X-51.332 Y-17.14 E124.37254
G1 X-51.642 Y-17.499 E124.3962
G1 X-51.949 Y-17.95 E124.42342
G1 X-52.202 Y-18.435 E124.45071
G1 X-52.394 Y-18.933 E124.47734
G1 X-52.539 Y-19.52 E124.5075
G0 F3600 X-52.835 Y-19.486
G0 X-52.836 Y-20.393
G0 X-52.673 Y-21.807
G0 X-52.02 Y-21.565
;TYPE:WALL-OUTER
G1 F1800 X-51.846 Y-22.023 E124.53195
G1 X-51.616 Y-22.468 E124.55694
G1 X-51.354 Y-22.86 E124.58046
G1 X-51.029 Y-23.238 E124.60533
G1 X-50.645 Y-23.589 E124.63129
G1 X-50.238 Y-23.879 E124.65622
G1 X-49.822 Y-24.109 E124.67993
G1 X-49.343 Y-24.302 E124.7057
G1 X-48.885 Y-24.428 E124.7294
G1 X-48.39 Y-24.503 E124.75438
G1 X-47.87 Y-24.519 E124.78033
G1 X-47.398 Y-24.477 E124.80397
G1 X-46.886 Y-24.369 E124.83008
G1 X-46.421 Y-24.21 E124.8546
G1 X-45.986 Y-24.003 E124.87863
G1 X-45.558 Y-23.733 E124.90388
G1 X-45.173 Y-23.422 E124.92857
G1 X-44.824 Y-23.063 E124.95355
G1 X-44.516 Y-22.659 E124.97889
G1 X-44.263 Y-22.229 E125.00378
G1 X-44.065 Y-21.775 E125.02849
G1 X-43.919 Y-21.297 E125.05343
G1 X-43.834 Y-20.811 E125.07804
G1 X-43.806 Y-20.333 E125.10193
G1 X-43.836 Y-19.814 E125.12787
G1 X-43.925 Y-19.318 E125.15301
G1 X-44.072 Y-18.847 E125.17762
G1 X-44.263 Y-18.41 E125.20142
G1 X-44.516 Y-17.981 E125.22627
G1 X-44.832 Y-17.569 E125.25217
G1 X-45.162 Y-17.229 E125.27581
G1 X-45.567 Y-16.901 E125.30181
G1 X-45.982 Y-16.639 E125.32629
G1 X-46.437 Y-16.424 E125.3514
G1 X-46.886 Y-16.271 E125.37507
G1 X-47.398 Y-16.163 E125.40117
G1 X-47.87 Y-16.121 E125.42481
G1 X-48.39 Y-16.137 E125.45077
G1 X-48.885 Y-16.212 E125.47575
G1 X-49.364 Y-16.345 E125.50055
G1 X-49.8 Y-16.521 E125.52401
G1 X-50.257 Y-16.774 E125.55007
G1 X-50.645 Y-17.051 E125.57385
G1 X-51.029 Y-17.402 E125.59981
G1 X-51.354 Y-17.78 E125.62468
G1 X-51.616 Y-18.172 E125.6482
G1 X-51.846 Y-18.617 E125.67319
G1 X-52.02 Y-19.075 E125.69763
G1 X-52.145 Y-19.589 E125.72402
G1 X-52.198 Y-20.058 E125.74757
G1 X-52.198 Y-20.58 E125.77361
G1 X-52.139 Y-21.062 E125.79784
G1 X-52.02 Y-21.565 E125.82363
G0 F3600 X-51.949 Y-21.752
G0 X-52.603 Y-21.995
G0 X-52.838 Y-20.606
G0 X-52.771 Y-19.463
G0 X-52.437 Y-18.368
G0 X-51.854 Y-17.382
G0 X-51.057 Y-16.561
G0 X-40.159 Y-7.554
G0 X-2.503 Y-3.21
G0 X-2.431 Y3.194
G0 X-2.905 Y3.194
;TYPE:WALL-INNER
G1 F1800 X-2.793 Y3.35 E125.83321
G1 X-2.731 Y3.583 E125.84524
G1 X-2.732 Y6.665 E125.999
G1 X-2.76 Y6.806 E126.00617
G1 X-2.903 Y7.04 E126.01985
G1 X-3.059 Y7.154 E126.02949
G1 X-3.331 Y7.218 E126.04343
G1 X-39.384 Y7.217 E127.84213
G1 X-39.619 Y7.145 E127.85439
G1 X-39.774 Y7.023 E127.86423
G1 X-39.929 Y6.753 E127.87976
G1 X-39.929 Y3.483 E128.0429
G1 X-39.774 Y3.213 E128.05843
G1 X-39.619 Y3.091 E128.06828
G1 X-39.384 Y3.019 E128.08054
G1 X-3.331 Y3.018 E129.87923
G1 X-3.061 Y3.081 E129.89306
G1 X-2.905 Y3.194 E129.90267
G0 F3600 X-2.431 Y3.194
G0 X-2.503 Y13.446
G0 X-11.65 Y19.253
G0 X-11.722 Y28.663
G0 X-11.326 Y28.663
G1 F1800 X-11.422 Y28.447 E129.91446
G1 X-11.418 Y20.01 E130.33539
G1 X-11.376 Y19.85 E130.34364
G1 X-11.268 Y19.678 E130.35377
G1 X-11.077 Y19.537 E130.36562
G1 X-10.901 Y19.481 E130.37483
G1 X4.77 Y19.482 E131.15666
G1 X4.945 Y19.521 E131.16561
G1 X5.156 Y19.658 E131.17816
G1 X5.33 Y19.959 E131.1955
G1 X5.33 Y28.457 E131.61947
G1 X5.163 Y28.752 E131.63638
G1 X4.957 Y28.892 E131.64881
G1 X4.787 Y28.934 E131.65754
G1 X-10.877 Y28.934 E132.43902
G1 X-11.081 Y28.878 E132.44958
G1 X-11.326 Y28.663 E132.46584
G0 F3600 X-10.951 Y28.49
;TYPE:WALL-OUTER
G1 F1800 X-11.022 Y28.386 E132.47212
G1 X-11.021 Y20.057 E132.88766
G1 X-10.971 Y19.946 E132.89373
G1 X-10.857 Y19.883 E132.90023
G1 X4.785 Y19.881 E133.68061
G1 X4.902 Y19.978 E133.6882
G1 X4.93 Y20.081 E133.69352
G1 X4.93 Y28.377 E134.10741
G1 X4.874 Y28.475 E134.11304
G1 X4.749 Y28.536 E134.11998
G1 X-10.841 Y28.536 E134.89777
G1 X-10.951 Y28.49 E134.90372
G0 F3600 X-11.022 Y28.386
G0 X-11.022 Y28.311
G0 X-11.722 Y28.311
G0 X-11.65 Y29.164
G0 X10.18 Y33.745
G0 X10.558 Y33.745
;TYPE:WALL-INNER
G1 F1800 X10.48 Y33.542 E134.91457
